!!!COM: Bach, Johann Sebastian
!!!CDT: 1685/3//-1750/7/28/
!!!OTL@@DE: Herr Christ, der ein'ge Gott's Sohn
!!!AGN: 4-Part Chorale
!!!SCT: BH 101
!!!SCT: BWV 164
**harm	**root	**kern	**kern	**kern	**kern
*	*Iorgan	*Iorgan	*Iorgan	*Iorgan	*Iorgan
!	!	!bass	!tenor	!alto	!soprno
*M4/4	*M4/4	*M4/4	*M4/4	*M4/4	*M4/4
*met(c)	*met(c)	*met(c)	*met(c)	*met(c)	*met(c)
*MM60	*MM60	*MM60	*MM60	*MM60	*MM60
*k[f#]	*k[f#]	*k[f#]	*k[f#]	*k[f#]	*k[f#]
*G:	*G:	*G:	*G:	*G:	*G:
*>[A,A,B]	*>[A,A,B]	*>[A,A,B]	*>[A,A,B]	*>[A,A,B]	*>[A,A,B]
*>A	*>A	*>A	*>A	*>A	*>A
I	4BB-	4G	4B	4d	4g
=1	=1	=1	=1	=1	=1
IV	4EE-	4C	4c	8e	8g
.	.	.	.	8f#	8a
I	4BB-	4GG	4d	4g	4b
V	4FF	4D	8d	4f#	4a
.	.	.	8c	.	.
vi	4GG	4E	4B	4e	4g
=2	=2	=2	=2	=2	=2
viio7b	4AA	4AA	4c	4e	2f#
V/vi	4DD	4BB	8B	4d#	.
.	.	.	8A	.	.
IV;	4EE-;	4C;	4G;	4e;	4e;
vi	4GG	4E	4G	4e	4b
=3	=3	=3	=3	=3	=3
ii7	4CC	4AA	4G	4e	4cc
V	4FF	8D	4F#	4d	4a
.	.	8C	.	.	.
Ib	4BB-	8BB	4G	4d	4b
.	.	8C	.	.	.
V	4FF	4D	8G	4d	4a
.	.	.	8F#	.	.
=4	=4	=4	=4	=4	=4
I;	2.BB-;	2.GG;	2.B;	2.d;	2.g;
*>B	*>B	*>B	*>B	*>B	*>B
=:|!	=:|!	=:|!	=:|!	=:|!	=:|!
I	4BB-	4GG	8B	4d	8g
.	.	.	8c	.	8a
!!linebreak: 2
=5	=5	=5	=5	=5	=5
I	4BB-	8G	4d	4g	4b
.	.	8F#	.	.	.
vi	4GG	8E	4e	8g	4b
.	.	8D	.	8f#	.
IV	4EE-	8C	8e	4e	4cc
.	.	8BB	8d	.	.
ii	4CC	8AA	8c	4e	4cc
.	.	8GG	8B	.	.
=6	=6	=6	=6	=6	=6
Vb	4FF	4FF#	4A	2d	4dd
I	4BB-	4GG	4G	.	8cc
.	.	.	.	.	8b
V;	4FF;	4DD;	4F#;	4d;	4a;
Vb	4FF	4FF#	4A	4d	4dd
=7	=7	=7	=7	=7	=7
I	4BB-	8GG	4G	4d	4b
.	.	8AA	.	.	.
Ib	4BB-	8BB	4G	4d	4b
.	.	8C	.	.	.
V	8FF	8D	4F#	8d	4a
viioD7/vi	8FF#	8D#	.	8c	.
vi	8GG	8E	8F#	4B	4g
vib	8GG	8GG	8E	.	.
=8	=8	=8	=8	=8	=8
viio7b	4AA	8AA	4E	8c	2f#
.	.	8FF#	.	8A	.
V/vi	4DD	4BB	4D#	4B	.
vi;	4GG;	4EE;	4G;	4B;	4e;
V/ii	4GG	4E	4G#	4e	4b
=9	=9	=9	=9	=9	=9
ii	4CC	8A	8A	4e	4cc
.	.	8G	8B	.	.
V7b	4FF	8F#	8c	4d	4a
.	.	8D	8F#	.	.
I	4BB-	8G	4Gy	8d	4b
.	.	8C	.	8e	.
V	4FF	8D	8d	4f#	4a
.	.	8DD	8c	.	.
=10	=10	=10	=10	=10	=10
I;	2.BB-;	2.GG;	2.B;	2.d;	2.g;
==	==	==	==	==	==
*-	*-	*-	*-	*-	*-
!!chor2scor: -l 2 -s 0.6 -o %b.pmx
!!!YEC: Copyright 1994, David Huron
!!!YEC: Changes/Additions 2001 by Craig Stuart Sapp
!!!YEN: United States of America
!!!SMA: 371 Bach Chorales, edited by Ludwig Erk, C.F. Peters
!!!PDT: 1850, 1865
!!!ONB: Harmony and Root analysis done manually
